outputs/icons/communication/incoming_call_round.svg

<svg xmlns="http://www.w3.org/2000/svg" width="1200" height="1200" fill="none"><path fill="#000" d="M1090.615 109.383a32.025 32.025 0 0 1 0 45.297l-342.44 342.444h268.55a32.024 32.024 0 1 1 0 64.051H670.85c-17.675 0-32.025-14.35-32.025-32.025V183.272a32.03 32.03 0 0 1 9.38-22.645 32.02 32.02 0 0 1 22.645-9.38 32.02 32.02 0 0 1 22.645 9.38 32.03 32.03 0 0 1 9.38 22.645v268.555l342.445-342.444a32.04 32.04 0 0 1 22.65-9.383 32.01 32.01 0 0 1 22.645 9.383"/><path fill="#000" d="m624.03 887.54 130.605-129.565c11.92-11.92 29.54-17.105 46.64-13.475l190.205 37.83c23.84 4.665 41.46 25.915 41.46 50.79v215.08c0 29.02-24.36 53.38-53.38 51.825-149.78-8.81-290.225-54.935-413.055-125.935-140.967-81.885-258.612-199.015-340.497-340.5-71.52-122.825-117.127-263.275-125.938-413.053-1.554-29.023 22.804-53.381 51.827-53.381h215.077c24.877 0 46.126 17.621 50.79 41.461l38.87 190.72c3.109 17.103-2.074 34.205-13.994 46.644L313.076 576.58A836.73 836.73 0 0 0 624.03 887.54"/></svg>

<svg width="1200" height="1200" viewBox="0 0 1200 1200" fill="none" xmlns="http://www.w3.org/2000/svg"><path d="M1090.615 109.383C1093.59 112.357 1095.95 115.888 1097.56 119.774C1099.17 123.66 1100 127.825 1100 132.031C1100 136.238 1099.17 140.403 1097.56 144.289C1095.95 148.175 1093.59 151.706 1090.615 154.68L748.175 497.124L1016.725 497.124C1025.22 497.124 1033.365 500.5 1039.375 506.505C1045.38 512.51 1048.755 520.655 1048.755 529.15C1048.755 537.645 1045.38 545.79 1039.375 551.795C1033.365 557.8 1025.22 561.175 1016.725 561.175H670.85C653.175 561.175 638.825 546.825 638.825 529.15V183.272C638.825 174.779 642.2 166.633 648.205 160.627C654.21 154.621 662.355 151.247 670.85 151.247C679.345 151.247 687.49 154.621 693.495 160.627C699.5 166.633 702.875 174.779 702.875 183.272V451.827L1045.32 109.383C1048.295 106.408 1051.825 104.049 1055.71 102.439C1059.595 100.829 1063.76 100 1067.97 100C1072.175 100 1076.34 100.829 1080.225 102.439C1084.11 104.049 1087.645 106.408 1090.615 109.383Z" fill="black"/><path d="M624.03 887.54L754.635 757.975C766.555 746.055 784.175 740.87 801.275 744.5L991.48 782.33C1015.32 786.995 1032.94 808.245 1032.94 833.12V1048.2C1032.94 1077.22 1008.58 1101.58 979.56 1100.025C829.78 1091.215 689.335 1045.09 566.505 974.09C425.538 892.205 307.893 775.075 226.008 633.59C154.488 510.765 108.881 370.315 100.07 220.537C98.516 191.514 122.874 167.156 151.897 167.156H366.974C391.851 167.156 413.1 184.777 417.764 208.617L456.634 399.337C459.743 416.44 454.56 433.542 442.64 445.981L313.076 576.58C387.187 706.145 494.467 813.425 624.03 887.54Z" fill="black"/></svg>
